X: 211
T: Bakma Sakın Benden Yana
C: Şakir Ağa
O: Turkey
F: http://compmusic.upf.edu/node/140
N: acemasiran--sarki--sofyan--bakma_sakin--sakir_aga
N: makam= acemasiran
N: form= sarki
N: usul= sofyan = 4/4
M: 4/4
L: 1/16
K: C _B   
Q: 1/4=66
%%MIDI tuningsystem comma53
c3e d3f efge .f4  | a2gf efge fbag fede  | 
w:  Bak *  ma  *  sa *  *  *  kın   |  ben *  *  den  *  ya *  na    | 
c3e d3f efge .f4  | a2gf efge f4 z2ga  | \
w:  Bak *  ma  *  sa *  *  *  kın   |  ben *  *  den  *  ya *  na   Küs  | 
b6g2 a3b agf2  | 
w:  tüm  gü cen  | 
g3f agfe .f6ga  | b6g2 a3b agf2  | g3f agfe f4 z2de  | 
w:  dim  *  ben  *  sa *  na   Küs  |  tüm  gü cen  |  dim  *  ben  *  sa *  na   Nâ  | 
f2_ed gfed cBcd c2B2  | c3d _edcB A^GAB Adc2  | 
w:  fi *  *  le  *  *  *  yal  |  var *  ma  *  ba *  na    | 
z2F2 G2A2 B3d c2B2  | A3G AGFE F4 z2de  | \
w:  Küs tüm  gü cen  |  dim  *  ben  *  sa *  na   Nâ  | 
f2_ed gfed cBcd c2B2  | 
w:  fi *  *  le  *  *  *  yal  | 
c3d _edcB A^GAB Adc2  | z2F2 G2A2 B3d c2B2  | 
w:  var *  ma  *  ba *  na    |  Küs tüm  gü cen  | 
A3G AGFE F6c'b  | a3/2g/fa g3/2f/eg f3/2e/fg abc'b  | 
w:  dim  *  ben  *  sa *  na    |  ARANAĞME  | 
a3/2g/fa g3/2f/eg f6c'b  | a3/2g/fa g3/2f/eg f3/2e/fg abc'b  | 
w:   |   | 
a3/2g/fa g3/2f/eg f6^f2  | g3b abga fgef dec2  | 
w:   |   | 
c2de gf_ed cdcB AGA2  | FGAB cdcB A3/2G/FA G3/2F/EG  | 
w:   |   | 
F3G A2B2 c2d2 e2f2  | ef2b abga fgef dec2  | 
w:   |   | 
c2de gf_ed cdcB AGA2  | FGAB cdcB A3/2G/FA G3/2F/EG  | 
w:   |   | 
F6C2 D2E2 F4  | c3e d3f efge .f4  | a2gf efge fbag fede  | 
w:   |  Bak *  ma  *  sa *  *  *  kın   |  ben *  *  den  *  ya *  na    | 
c3e d3f efge .f4  | a2gf efge f4 z2ga  | \
w:  Bak *  ma  *  sa *  *  *  kın   |  ben *  *  den  *  ya *  na   Küs  | 
b6g2 a3b agf2  | 
w:  tüm  gü cen  | 
g3f agfe .f6ga  | b6g2 a3b agf2  | g3f agfe f4 z2de  | 
w:  dim  *  ben  *  sa *  na   Küs  |  tüm  gü cen  |  dim  *  ben  *  sa *  na   Nâ  | 
f2_ed gfed cBcd c2B2  | c3d _edcB A^GAB Adc2  | 
w:  fi *  *  le  *  *  *  yal  |  var *  ma  *  ba *  na    | 
z2F2 G2A2 B3d c2B2  | A3G AGFE F4 z2de  | \
w:  Küs tüm  gü cen  |  dim  *  ben  *  sa *  na   Nâ  | 
f2_ed gfed cBcd c2B2  | 
w:  fi *  *  le  *  *  *  yal  | 
c3d _edcB A^GAB Adc2  | z2F2 G2A2 B3d c2B2  | 
w:  var *  ma  *  ba *  na    |  Küs tüm  gü cen  | 
A3G AGFE F6z2  | |


